packages/tokens/icons/push/size24Px.svg

<svg viewBox="0 0 24 24" fill="none" xmlns="http://www.w3.org/2000/svg" width="1em" height="1em"><path d="M12 21.5L12 12" stroke="currentColor" stroke-linecap="round" stroke-linejoin="round"/><path d="M8.5 15.5L12 11.5L15.5 15.5" stroke="currentColor" stroke-linecap="round" stroke-linejoin="round"/><path d="M18.5 15.5C20.6111 15.5 21.5 13.6087 21.5 11.9723C21.5 10.0397 20.3027 8.25332 18.5 8C18.5 5.51985 16.2729 3.5 13.5 3.5C11.4287 3.5 9.7504 5.16069 9.10068 7.07186C7 6.5 5 7.88692 5 10.5C3.73362 10.7003 2.5 11.6985 2.5 13.0633C2.5 14.5695 3.5 15.5 5.5 15.5" stroke="currentColor" stroke-linecap="round" stroke-linejoin="round"/></svg>

<svg xmlns="http://www.w3.org/2000/svg" fill="none" viewBox="0 0 24 24" width="1em" height="1em"><path stroke="currentColor" stroke-linecap="round" stroke-linejoin="round" d="M12 21.5V12m-3.5 3.5 3.5-4 3.5 4"/><path stroke="currentColor" stroke-linecap="round" stroke-linejoin="round" d="M18.5 15.5c2.111 0 3-1.891 3-3.528 0-1.932-1.197-3.719-3-3.972 0-2.48-2.227-4.5-5-4.5-2.071 0-3.75 1.66-4.4 3.572C7 6.5 5 7.887 5 10.5c-1.266.2-2.5 1.198-2.5 2.563 0 1.506 1 2.437 3 2.437"/></svg>
